src/status/24/bluetooth-disabled-70-symbolic.svg

<?xml version="1.0" encoding="UTF-8" standalone="no"?>
<svg
   xmlns:dc="http://purl.org/dc/elements/1.1/"
   xmlns:cc="http://creativecommons.org/ns#"
   xmlns:rdf="http://www.w3.org/1999/02/22-rdf-syntax-ns#"
   xmlns:svg="http://www.w3.org/2000/svg"
   xmlns="http://www.w3.org/2000/svg"
   id="svg6"
   version="1.1"
   width="24"
   height="24">
  <metadata
     id="metadata12">
    <rdf:RDF>
      <cc:Work
         rdf:about="">
        <dc:format>image/svg+xml</dc:format>
        <dc:type
           rdf:resource="http://purl.org/dc/dcmitype/StillImage" />
        <dc:title></dc:title>
      </cc:Work>
    </rdf:RDF>
  </metadata>
  <defs
     id="defs10" />
  <path
     id="path2"
     d="M 6.3515625,4.7363281 5.4121094,5.6777344 14.892578,15.158203 h -0.90625 L 12,16.9375 V 13.566406 L 10.494141,12.060547 8.3125,13.96875 c -0.310445,0.276247 -0.3384165,0.751761 -0.0625,1.0625 0.273,0.313 0.71825,0.36675 1.03125,0.09375 l 1.720703,-1.5 V 18.5 c 0,0.277 0.222,0.5 0.5,0.5 0.282,0 0.436297,-0.0195 0.654297,-0.1875 l 3.53125,-3.15625 c 0.106935,-0.10178 0.18279,-0.231818 0.21875,-0.375 0.02829,-0.09089 0.0389,-0.186364 0.03125,-0.28125 -0.0046,-0.05308 -0.01511,-0.105477 -0.03125,-0.15625 -0.03596,-0.143182 -0.111815,-0.27322 -0.21875,-0.375 l -0.05664,-0.05078 0.201172,-0.201172 L 13.267578,11.652344 15.6875,9.53125 c 0.106935,-0.1017801 0.18279,-0.2318176 0.21875,-0.375 0.04605,-0.1421978 0.04605,-0.2953022 0,-0.4375 C 15.87029,8.5755676 15.794435,8.4455301 15.6875,8.34375 L 12.15625,5.1875 C 11.95725,5.0275 11.729,5 11.5,5 11.223,5 11,5.223 11,5.5 V 9.3847656 Z M 12,7.0625 14.09375,8.9375 12.195312,10.580078 12,10.384766 Z"
     style="color:#bebebe;overflow:visible;fill:#363636;marker:none" />
</svg>

<svg xmlns="http://www.w3.org/2000/svg" width="24" height="24">
    <path d="m6.352 4.736-.94.942 9.48 9.48h-.906L12 16.938v-3.372l-1.506-1.505-2.181 1.908a.753.753 0 0 0-.063 1.062c.273.313.718.367 1.031.094l1.721-1.5V18.5c0 .277.222.5.5.5.282 0 .436-.02.654-.187l3.531-3.157a.78.78 0 0 0 .22-.375.745.745 0 0 0 0-.437.78.78 0 0 0-.22-.375l-.056-.051.201-.201-2.564-2.565 2.42-2.12a.78.78 0 0 0 .218-.376.71.71 0 0 0 0-.437.78.78 0 0 0-.219-.375l-3.53-3.156c-.2-.16-.428-.188-.657-.188-.277 0-.5.223-.5.5v3.885ZM12 7.063l2.094 1.875-1.899 1.642-.195-.195Z" style="color:#bebebe;overflow:visible;fill:#050505;opacity:.7;marker:none"/>
</svg>
